src/status/24/qtox-offline.svg

<svg enable-background="new 0 0 90 109" height="24" version="1.1" viewBox="-1 -1 24.533333 24.440367" width="24" x="0" xml:space="preserve" xmlns="http://www.w3.org/2000/svg" y="0"><path d="M12 4C9.790861 4 8 5.79086 8 8L8 10 7 10A2 2 0 0 0 5 12L5 18A2 2 0 0 0 7 20L17 20A2 2 0 0 0 19 18L19 12A2 2 0 0 0 17 10L16 10 16 8C16 5.79086 14.209139 4 12 4zM12 6C13.104569 6 14 6.89543 14 8 14 8.471243 13.898786 8.841975 13.765625 9.107422 13.632464 9.372869 13.337028 9.72687 13 10 12.67052 10.267013 12 10.607422 12 10.607422 12 10.607422 12.305608 10.236256 12.429688 9.951172 12.288644 9.982932 12.144574 9.99992 12 10 10.89543 10.000617 10 9.104569 10 8 10 6.89543 10.89543 6 12 6zM12 12A3 3.000001 0 0 1 15 15 3 3.000001 0 0 1  12 18 3 3.000001 0 0 1  9 15 3 3.000001 0 0 1  12 12zM12.005859 13A2.000001 2 0 0 0 11.609375 13.039062 2.000001 2 0 0 0  10.017578 15.261719 2.000001 2 0 0 0  12.130859 16.996094 2.000001 2 0 0 0  14 15L13.931641 14.482422A2.000001 2 0 0 0 12.007812 13 2.000001 2 0 0 1  12.005859 13z" fill="#2e3440" opacity=".4" stroke-linecap="round" stroke-linejoin="round" stroke-width=".708661" transform="matrix(1.0222222 0 0 1.0222222 -1 -1.046483)"/><path cx="11.266666" cy="14.79796" fill="#2e3440" rx="2.555555" ry="2.555555"/><path cx="11.266666" cy="14.286849" fill="#2e3440" rx="3.066667" ry="3.066666"/><path cx="11.266666" cy="14.79796" d="" fill="#2e3440" rx="2.555555" ry="2.555555"/></svg>

<svg width="24" height="24" enable-background="new 0 0 90 109" version="1.1" viewBox="-1 -1 24.533 24.44" xml:space="preserve" xmlns="http://www.w3.org/2000/svg"><path transform="matrix(1.0222 0 0 1.0222 -1 -1.0465)" d="m12 4c-2.2091 0-4 1.7909-4 4v2h-1a2 2 0 0 0-2 2v6a2 2 0 0 0 2 2h10a2 2 0 0 0 2-2v-6a2 2 0 0 0-2-2h-1v-2c0-2.2091-1.7909-4-4-4zm0 2c1.1046 0 2 0.89543 2 2 0 0.47124-0.10121 0.84198-0.23438 1.1074s-0.4286 0.61945-0.76562 0.89258c-0.32948 0.26701-1 0.60742-1 0.60742s0.30561-0.37117 0.42969-0.65625c-0.14104 0.03176-0.28511 0.048748-0.42969 0.048828-1.1046 6.17e-4 -2-0.89543-2-2 0-1.1046 0.89543-2 2-2zm0 6a3 3 0 0 1 3 3 3 3 0 0 1-3 3 3 3 0 0 1-3-3 3 3 0 0 1 3-3zm0.005859 1a2 2 0 0 0-0.39648 0.039062 2 2 0 0 0-1.5918 2.2227 2 2 0 0 0 2.1133 1.7344 2 2 0 0 0 1.8691-1.9961l-0.068359-0.51758a2 2 0 0 0-1.9238-1.4824 2 2 0 0 1-0.001953 0z" fill="#2e3440" opacity=".4" stroke-linecap="round" stroke-linejoin="round" stroke-width=".70866"/></svg>
